app/dist/common/images/miraca.svg

<svg height="18" viewBox="0 0 18 18" width="18" xmlns="http://www.w3.org/2000/svg"><path d="m0 0h18v18h-18z" fill="#f0f3fa"/><path d="m11.4 6h-1.7l-.5 2.33h1.69z" fill="#9e999d"/><path d="m15 6h-1.8l-.86 3.8c-.19.8-.5.87-.89.87h-1.1l.22-1h-1.73l-.54 2.33h3.53c.97 0 1.76 0 2.23-2z" fill="#9e999d"/><path d="m10.88 8.33h-1.7l.54-2.33h-1.72l-.5 2.33h-1.8l.52-2.33c-.98 0-1.8-.01-2.27 2l-.95 4h1.8l.56-2.33h1.8l-.56 2.33h1.7l.55-2.33h1.72l.3-1.34z" fill="#0052a2"/></svg>

<!-- by TradingView --><svg width="18" height="18" viewBox="0 0 18 18" xmlns="http://www.w3.org/2000/svg"><path fill="#F0F3FA" d="M0 0h18v18H0z"/><path d="M11.4 6H9.7L9.2 8.33h1.69L11.4 6Z" fill="#9E999D"/><path d="M15 6h-1.8l-.86 3.8c-.19.8-.5.87-.89.87h-1.1l.22-1H8.84L8.3 12h3.53c.97 0 1.76 0 2.23-2L15 6Z" fill="#9E999D"/><path d="M10.88 8.33h-1.7L9.72 6H8L7.5 8.33H5.7L6.22 6c-.98 0-1.8-.01-2.27 2L3 12h1.8l.56-2.33h1.8L6.6 12h1.7l.55-2.33h1.72l.3-1.34Z" fill="#0052A2"/></svg>
